assets/images/telegram.svg

<svg width="23" height="23" viewBox="0 0 23 23" fill="none" xmlns="http://www.w3.org/2000/svg">
<g clip-path="url(#clip0_311_569)">
<path d="M21.1328 2.04034L0.755914 9.9388C-0.0640813 10.3066 -0.341433 11.0432 0.557685 11.443L5.78529 13.1128L18.4248 5.26096C19.115 4.76801 19.8215 4.89947 19.2136 5.4417L8.35786 15.3216L8.01684 19.5027C8.3327 20.1483 8.91104 20.1513 9.27992 19.8305L12.2833 16.9739L17.4271 20.8456C18.6218 21.5565 19.2718 21.0977 19.5289 19.7947L22.9027 3.7365C23.253 2.13252 22.6557 1.42581 21.1328 2.04034Z" fill="white"/>
</g>
<defs>
<clipPath id="clip0_311_569">
<rect width="23" height="23" fill="white"/>
</clipPath>
</defs>
</svg>

<svg width="23" height="23" viewBox="0 0 23 23" fill="none" xmlns="http://www.w3.org/2000/svg"><g clip-path="url(#clip0_311_569)"><path d="M21.133 2.04L.756 9.94c-.82.368-1.097 1.104-.198 1.504l5.227 1.67 12.64-7.852c.69-.493 1.396-.362.789.18l-10.856 9.88-.341 4.182c.316.645.894.648 1.263.328l3.003-2.857 5.144 3.872c1.195.71 1.845.252 2.102-1.051l3.374-16.059c.35-1.603-.247-2.31-1.77-1.696z" fill="#fff"/></g><defs><clipPath id="clip0_311_569"><path fill="#fff" d="M0 0h23v23H0z"/></clipPath></defs></svg>
